icons/op-shortcuts-24.svg

<svg width="24" height="24" viewBox="0 0 24 24" fill="none" xmlns="http://www.w3.org/2000/svg">
<path d="M18.2812 20H5.71875C4.78125 20 4 19.2188 4 18.2812V5.71875C4 4.78125 4.78125 4 5.71875 4H18.2812C19.2188 4 20 4.78125 20 5.71875V18.2812C20 19.2188 19.2188 20 18.2812 20ZM5.71875 5C5.3125 5 5 5.3125 5 5.71875V18.2812C5 18.6875 5.3125 19 5.71875 19H18.2812C18.6875 19 19 18.6875 19 18.2812V5.71875C19 5.3125 18.6875 5 18.2812 5H5.71875ZM7.6875 17.3438C7.5625 17.375 7.3125 17.4688 7 17.4688C6.28125 17.4688 5.8125 16.9688 5.8125 16.25C5.8125 15.5312 6.3125 14.9688 7.09375 14.9688C7.34375 14.9688 7.5625 15.0625 7.6875 15.0938L7.59375 15.4375C7.5 15.375 7.3125 15.3438 7.09375 15.3438C6.53125 15.3438 6.25 15.7188 6.25 16.2188C6.25 16.7812 6.59375 17.125 7.0625 17.125C7.3125 17.125 7.46875 17.0625 7.59375 17L7.6875 17.3438ZM8.78125 14.3438V15.0312H9.40625V15.375H8.78125V16.6562C8.78125 16.9375 8.84375 17.125 9.09375 17.125C9.21875 17.125 9.28125 17.0938 9.34375 17.0938L9.375 17.4062C9.28125 17.4375 9.15625 17.4688 9 17.4688C8.78125 17.4688 8.625 17.4062 8.53125 17.2812C8.40625 17.1562 8.34375 16.9375 8.34375 16.6562V15.375H7.96875V15.0312H8.34375V14.4688L8.78125 14.3438ZM9.875 15.7812V15.0312H10.25V15.5H10.2812C10.375 15.1875 10.6562 14.9688 10.9375 14.9688C11 14.9688 11.0312 15 11.0625 15V15.4062C11.0312 15.4062 10.9688 15.375 10.9062 15.375C10.5938 15.375 10.375 15.625 10.3438 15.9375C10.3125 16 10.3125 16.0625 10.3125 16.1562V17.4062H9.875V15.7812ZM11.5 13.9062H11.9375V17.4062H11.5V13.9062ZM13.9375 14.8125V15.9688H15.0625V16.25H13.9375V17.4062H13.625V16.25H12.5V15.9688H13.625V14.8125H13.9375Z" fill="black"/>
</svg>

<svg xmlns="http://www.w3.org/2000/svg" width="24" height="24" viewBox="0 0 24 24"><path d="M18.281 20H5.719A1.734 1.734 0 0 1 4 18.281V5.719C4 4.781 4.781 4 5.719 4h12.562C19.219 4 20 4.781 20 5.719v12.562c0 .938-.781 1.719-1.719 1.719ZM5.719 5A.707.707 0 0 0 5 5.719v12.562c0 .407.312.719.719.719h12.562a.707.707 0 0 0 .719-.719V5.719A.707.707 0 0 0 18.281 5H5.719Zm1.969 12.344c-.126.031-.376.125-.688.125-.719 0-1.188-.5-1.188-1.219 0-.719.5-1.281 1.282-1.281.25 0 .468.093.594.125l-.094.344c-.094-.063-.282-.094-.5-.094-.563 0-.844.375-.844.875 0 .562.344.906.812.906.25 0 .407-.063.532-.125l.094.344Zm1.093-3v.687h.625v.344h-.625v1.281c0 .282.063.469.313.469.125 0 .187-.031.25-.031l.031.312a1.146 1.146 0 0 1-.375.063c-.219 0-.375-.063-.469-.188-.125-.125-.187-.343-.187-.625v-1.281h-.375v-.344h.375v-.562l.437-.125Zm1.094 1.437v-.75h.375v.469h.031c.094-.312.375-.531.657-.531.062 0 .093.031.124.031v.406c-.031 0-.093-.031-.156-.031-.312 0-.531.25-.562.563-.032.062-.032.124-.032.218v1.25h-.437v-1.625Zm1.625-1.875h.438v3.5H11.5v-3.5Zm2.438.906v1.157h1.124v.281h-1.124v1.156h-.313V16.25H12.5v-.281h1.125v-1.157h.313Z"/></svg>
